X: 28856
T: Myles The Slasher
R: reel
M: 4/4
K: Dmajor
|:(3ABc|dAFA D2 FA|dfed cAAc|BE E2 efed|cded cAAc|
dAFA D2 FA|dfed cAAc|BE E2 efed|ceAc d2:|
|:Bc|df f2 dfBf|df f2 ecAc|ce e2 ceAc|ceed cAAc|
df f2 dfBf|df f2 ecAA|Bdce dfed|ceAc d2:|

